X:1
T:Promoted to Glory
T:Herbert Howard Booth, 1890
T:Promoted to Glory
T:Public Domain
T:Public Domain
T:Public Domain
T:Public Domain
C:Herbert Howard Booth, 1890
Z:Public Domain
%%score ( 1 2 ) ( 3 4 )
L:1/8
M:4/4
K:Eb
V:1 treble 
V:2 treble 
V:3 bass 
V:4 bass 
V:1
 [EB]2 (DF) [EB]2 [Ee]2 | [Ed]3 [Ec] [EB]2 [EG]2 | E2 ([B,F][B,G]) [EB]2 [CE][_CF] | %3
w: 1.~Sum- moned * home, the|has sound- ed, Bid-|ding~a sol- * dier his war-|
w: 2.~Once the * sword, but|the scep- ter, Once|the fight, * now the rest|
 (B,E)(DF) E4 x | [EB]2 [Ee]2 E2 (Ec) x | ([Ec]2 [EB])[E=A] [EB]2 [EG]2 | %6
w: cease; * And * the|re- sound- ed, Wel- *|rior * to e- ter-|
w: fame, * Brok- * en|ly fet- ter, Now *|ry * for the cross|
 [DF]2 ([FB]>[FB]) [FB][F=A][FB][Ge] | (F2 E)[DB] (z2 CD) x | E2 G2 B2 [Ge]2 | %9
w: nal peace. * Praise the Lord! from|earth- * ly * *|A com- rade has|
w: and shame; * Once the loss of|all * for * *|But now the e-|
 [Ge]3 [Fd] [Ec]2 [Ed][Ee] | [Ee]2 [EB][EG] [DF]3 E | (z2 c2 BG[CE]C) | %12
w: Death has lost its sting,|the grave its vic- to-||
w: Tri- als and sor- row|here have found their mean-||
 DEF[EG] [CA]<[Cc] [CF]>[CF] | (EFE)[E^F] [EG]<[DB] E2 | (FG)[=Ac][Bc] c2 [Bd][Ae] | %15
w: * * * flicts and dan- gers are|ver; * * See him hon- ored|throne * of glo- ry, Crowned by|
w: * * * ter- ies their ex- pla-|tion; * * Safe, for- ev- er|sun- * light gleam- ing Of His|
 (=ABcA) [Bd]4 | [Be]2 B2 [Ad][Ac]A[AB] | [Ac]2 (de) [EB]2 [EG]2 | [CE]2 [CF][_CA] [B,G]2 [B,F]E | %19
w: of * * * Je-|vah! * * * * *|||
w: nal * * * sal-|tion. * * * * *|||
 [DF]4 E4 ||"^Refrain" [GB]2 [FB]2 [EB]2 (DE) | [F=B]4 [Ec]2 [=Ec]2 | (FG)(=AB) c2 ([Bd][Ae]) | %23
w: ||||
w: ||||
 (=ABcA) [Bd]2 [Bd]>[Bd] | [Be]2 [EB]2 [DA]2 [EG]>[EG] | [Ed]2 [Ec]2 [EB]2 [DA]>[FA] | %26
w: |||
w: |||
 [EG]2 [EB]2 [DF]3 E | E6 z |] %28
w: ||
w: ||
V:2
 x2 B2 x4 | x8 | E2 x6 | G3 D2 E4 | x4 d3 E2 | x8 | x8 | c3 [DB]4 x2 | E2 G2 B2 x2 | x8 | x7 E | %11
w: call||fare|song of angels|comes~a war-|||strug- gles|found re- lease.||ry;|
w: now||and|ev- ery earth-|the glo-|||Je- sus,|ter- nal gain.||ing|
 E6 x2 | A2 x6 | G2 x3 E2 x | c2 x c2 x3 | e4 x4 | x2 B2 A x3 | x2 E2 x4 | x7 E | x4 E4 || x6 B2 | %21
w: Con-|o-|in the|the hand|ho-||||||
w: Mys-|na-|in the|e- ter-|va-||||||
 x8 | c2 c2 c2 x2 | e4 x4 | x8 | x8 | x7 E | E6 x |] %28
w: |||||||
w: |||||||
V:3
 [E,G,]2 (F,D,) [E,G,]2 [G,,B,]2 | (A,,B,,C,)[D,A,] [E,G,]2 [E,B,]2 | %2
w: ~ ~ * ~ ~|~ * * ~ ~ ~|
 [G,B,]2 ([D,A,][E,G,]) (G,B,)[A,,A,][A,,A,] | [B,,G,]2 (B,A,) [E,G,]4 x | %4
w: ~ ~ * ~ * ~ ~|~ ~ * ~|
 [E,G,]2 ([F,A,][G,B,]) A,2 (A,,A,) x | [E,A,]2 [E,G,][E,^F,] [E,G,]2 [E,B,]2 | %6
w: ~ ~ * ~ ~ *|~ ~ ~ ~ ~|
 [F,B,]2 [F,D]>[F,D] [F,D][F,C][F,D][F,B,] | F,2 (F,,B,) (z2 C,D,) x | E,2 G,2 B,2 [E,B,]2 | %9
w: ~ ~ ~ ~ ~ ~ ~|~ ~ * * *|* ~ ~ ~|
 [G,=B,]3 [G,B,] [A,C]2 [A,B,][A,C] | [G,B,]2 [E,G,][E,B,] [B,,A,]3 [E,G,] | (z2 C2 B,G,[C,E,]C,) | %12
w: ~ ~ ~ ~ ~|~ ~ ~ ~ ~||
 B,,C,D,[E,B,] [F,A,]<[F,A,] [F,A,]>[F,A,] | %13
w: * * * ~ ~ ~ ~ ~|
 ([E,B,][D,=B,][C,C])[C,=A,] [=B,,_B,]<[_B,,_A,] [C,G,]2 | (=A,B,)[F,C][F,D] [F,E]2 [F,D][F,C] | %15
w: ~ * * ~ ~ ~ ~|~ * ~ ~ ~ ~ ~|
 (F,G,=A,F,) (B,2 _A,2) | [G,E]2 [G,E]2 [G,E][G,E][A,C][A,D] | [G,E]2 (=B,C) [G,E]2 [E,_B,]2 | %18
w: ~ * * * ~ *|~ ~ ~ ~ ~ Strife|and sor- * row o-|
 A,2 [A,,A,][A,,F,] [B,,B,]2 [B,,A,][B,,G,] | [B,,A,]4 [E,G,]4 || %20
w: The Lord’s true faith- ful sol-|Has been|
 [E,B,]2 [A,B,]2 [G,B,]2 ([F,A,][E,G,]) | (D,2 G,,2) [C,G,]2 (CB,) | (=A,B,)(CD) [F,E]2 (DC) | %23
w: called to go from *|the * ranks be- *|the * con- * q’ring host *|
 (F,G,=A,F,) [B,F]2 [_A,F]>[A,F] | [G,E]2 [G,E]2 [F,B,]2 [E,B,]>[E,B,] | %25
w: ||
 [A,,A,]2 A,2 [G,B,]2 [F,B,]>[D,B,] | [E,B,]2 [G,,B,]2 [B,,A,]3 [E,G,] | [E,G,]6 z |] %28
w: |||
V:4
 x2 A,2 x4 | B,3 x5 | x4 G,,2 x2 | x2 B,,2 x5 | x4 A,2 A,,2 x | x8 | x8 | =A,3 F,,2 [B,,B,]4 | %8
w: ~|~|~|~|~ ~|||~ ~ ~|
 E,2 G,2 B,2 x2 | x8 | x8 | [E,G,]6 x2 | B,2 x6 | x8 | F,2 x6 | F4 F4 | x8 | x2 A,2 x4 | A,2 x6 | %19
w: ~ ~ ~|||~|~||~|~ ~||ver,|dier|
 x8 || x8 | G,4 C,2 x2 | F,2 F,2 x F,2 x | F4 x4 | x8 | x2 A,2 x4 | x8 | x7 |] %28
w: ||low, To|a- bove. *||||||

